!!!!SEGMENT: pl-cz--iii-882--005_brykner-jerzy--completorium-c-te-lucis-ante-terminum.krn
!!!cenid: 17xx:865
!!!COM: Brykner, Jerzy
!!!COM-rismid: pe30025739
!!!CDT: 1705-1760
!!!CNT: Polish
!!!OPR: Completorium C
!!!OTL: Te lucis ante terminum
!!!OMV: 005
!!!PDT:
!!!AGN: Completorium
!!!SMS-siglum: PL-CZ
!!!SMS-shelfmark: III-882
!!!SMS-shelfwork: 001-005 M
!!!SMS-variant:
!!!SMS-altvar:
!!!NIFC-rismid: 300033576
!!!URL-scan: http://repozytorium.nifc.pl/skany/pl-cz-nut--iii-882
!!!ONB-nifc: UWAGA: części Completorium: Cum invocarem, In te Domine speravi, Qui habitat, Ecce nunc benedicite, Te lucis ante terminum, In manus tuas, Nunc dimittis. Uwaga: niekompletne partie A, B, vl 1.
!!!key:
**kern	**fba	**kern	**kern	**kern	**text	**kern	**text	**kern	**text	**text
*part6	*part6	*part5	*part4	*part3	*part3	*part2	*part2	*part1	*part1	*part1
*staff6	*	*staff5	*staff4	*staff3	*staff3	*staff2	*staff2	*staff1	*staff1	*staff1
*Iorgan	*	*Ivioln	*Ivioln	*Iempty	*	*Ialto	*	*Ivox	*	*
*I"Organo.	*	*I"Violino Secundo.	*I"Violino Primo.	*I"[Basso]	*	*I"[Alto]	*	*I"Canto.	*	*
*I'org	*	*I'vl II	*I'vl I	*I'B	*	*I'A	*	*I'C	*	*
*group3	*	*group2	*group2	*group1	*	*group1	*	*group1	*	*
*clefF4	*	*clefG2	*clefG2	*clefF4	*	*clefC3	*	*clefC1	*	*
*k[]	*	*k[]	*k[]	*k[]	*	*k[]	*	*k[]	*	*
*C:	*	*C:	*C:	*C:	*	*C:	*	*C:	*	*
*M2/2	*	*M2/2	*M2/2	*M2/2	*	*M2/2	*	*M2/2	*	*
*met(c|)	*	*met(c|)	*met(c|)	*met(c|)	*	*met(c|)	*	*met(c|)	*	*
=1	=1	=1	=1	=1	=1	=1	=1	=1	=1	=1
*2\right	*	*2\right	*2\right	*2\right	*	*2\right	*	*2\right	*	*
!LO:TX:a:t=P:problem=brak oznaczenia tempa	!	!	!	!	!	!	!	!	!	!
!LO:TX:a:t=T	!	!LO:TX:a:B:t=Te lucis tacet	!LO:TX:a:t=P:problem=partia niekompletna [brak części te lucis ante terminum]	!LO:TX:a:t=P:problem=brak oznaczenia tempa	!	!LO:TX:a:t=P:problem=brak oznaczenia tempa	!	!LO:TX:a:t=P:problem=brak oznaczenia tempa	!	!
2C/	.	1ryy	1ryy	2r	.	1g	Te	1cc	Te	Je-
[<2c\	.	.	.	2c\	Te	.	.	.	.	.
=2	=2	=2	=2	=2	=2	=2	=2	=2	=2	=2
2c\]	4 2	1ryy	1ryy	2c\	lu	2g\	lu-	2.dd\	lu-	.
!	!	!	!	!LO:TX:a:t=P:problem=dźwięk nieczytelny [prawdopodobnie 2Bn zgodnie z org]	!	!	!	!	!	!
2B\	6	.	.	2r	.	2g\	-cis	.	.	.
.	.	.	.	.	.	.	.	8cc\L	-cis	-su
.	.	.	.	.	.	.	.	8dd\J	.	.
=3	=3	=3	=3	=3	=3	=3	=3	=3	=3	=3
2.c\	.	1ryy	1ryy	2.c\	an-	1g	an-	2.ee\	an-	ti-
4B\	.	.	.	4B\	-te	.	.	4dd\	.	.
=4	=4	=4	=4	=4	=4	=4	=4	=4	=4	=4
4A\	.	1ryy	1ryy	4A\	ter-	2.a\	.	2cc\	.	-bi
4G\	.	.	.	4G\	.	.	.	.	.	.
4F\	.	.	.	4F\	.	.	.	2cc\	-te	sit
4E\	.	.	.	4E\	.	4g\	-te	.	.	.
=5	=5	=5	=5	=5	=5	=5	=5	=5	=5	=5
!	!	!	!	!LO:TX:a:t=P:problem=w taktach 5-9 omyłkowo wpisana część basu cyfrowanego	!	!	!	!	!	!
2F\	6	1ryy	1ryy	2F\	.	2a\	ter-	2dd\	ter-	glo-
2G\	4	.	.	2G\	-mi-	2g\	-mi-	(4cc\	-mi-	-ri-
.	3	.	.	.	.	.	.	4b\)	.	.
=6	=6	=6	=6	=6	=6	=6	=6	=6	=6	=6
2C/	.	1ryy	1ryy	2C/	-num	2g\	-num,	2cc\	-num,	-a
2c\	.	.	.	2c\	Re-	2g\	Re-	2ee\	re-	qui
=7	=7	=7	=7	=7	=7	=7	=7	=7	=7	=7
!LO:TX:a:t=P:problem=brak taktu 7	!	!LO:TX:a:t=P:problem=nadmiarowy takt w A	!	!LO:TX:a:t=P:problem=nadmiarowy takt w A	!	!LO:TX:a:t=P:problem=zbędne powtórzenie t. 6	!	!LO:TX:a:t=P:problem=nadmiarowy takt w A	!	!
1ryy	.	1ryy	1ryy	1ryy	.	2g\	-rum	1ryy	.	.
.	.	.	.	.	.	2g\	Cre-	.	.	.
=8	=8	=8	=8	=8	=8	=8	=8	=8	=8	=8
!	!	!	!	!	!	!	!	!LO:TX:a:t=P:problem=brak taktów 7-8	!	!
2A\	6| 5	1ryy	1ryy	2A\	-rum	2f#X\	-a-	1ryy	.	.
2B\	.	.	.	2B\	Cre-	2g\	-tor	.	.	.
=9	=9	=9	=9	=9	=9	=9	=9	=9	=9	=9
2G\	6 5	1ryy	1ryy	2G\	-a-	2e\	pos-	2ee\	-rum	na-
2A\	.	.	.	2A\	-tor	[2a\	.	(4dd\	Cre-	-tus
.	.	.	.	.	.	.	.	4cc\)	.	.
=10	=10	=10	=10	=10	=10	=10	=10	=10	=10	=10
2F#X\	6 5	1ryy	1ryy	2F#X\	pos-	2a\]	.	2dd\	a-	es
2G\	.	.	.	2G\	.	2g\	.	(4cc\	-tor	de
.	.	.	.	.	.	.	.	4b\)	.	.
!LO:LB:g=original	!	!	!	!	!	!LO:LB:g=original	!	!	!	!
=11	=11	=11	=11	=11	=11	=11	=11	=11	=11	=11
2D\	#	1ryy	1ryy	2D\	.	2f#X\	.	2a\	pos-	Vir-
2G\	.	.	.	2G\	.	[2g\	.	2b\	.	.
!	!	!	!	!LO:LB:g=original	!	!	!	!LO:LB:g=original	!	!
=12	=12	=12	=12	=12	=12	=12	=12	=12	=12	=12
1D	4	1ryy	1ryy	2.D/	.	2g\]	.	2.a\	.	.
.	#	.	.	.	.	4f#X\	.	.	.	.
.	.	.	.	4D/	-ci-	4f#\	-ci-	4a\	-ci-	-gi-
=13	=13	=13	=13	=13	=13	=13	=13	=13	=13	=13
2GG/	.	1ryy	1ryy	1G	-mus	1g	-mus	1g	-mus	-ne
2G\	.	.	.	.	.	.	.	.	.	.
=14	=14	=14	=14	=14	=14	=14	=14	=14	=14	=14
2G\	.	1ryy	1ryy	2G\	ut	2g\	ut	2b\	ut	cum
2E\	6	.	.	2E\	pro	2g\	pro	(4cc\	pro	Pa-
.	.	.	.	.	.	.	.	4b\)	.	.
=15	=15	=15	=15	=15	=15	=15	=15	=15	=15	=15
2.F\	.	1ryy	1ryy	2.Fn\	tu-	2.a\	tu-	2a\	tu-	-tre
.	.	.	.	.	.	.	.	2a\	-a	(et)
4E\	.	.	.	4E\	.	4g\	.	.	.	.
=16	=16	=16	=16	=16	=16	=16	=16	=16	=16	=16
2D/	5	1ryy	1ryy	2D/	a	(4f\	-a	4a\	cle-	al-
.	6	.	.	.	.	4g\)	.	4b\	.	-mo
4C/	6	.	.	4C/	cle-	2a\	cle-	2cc\	-men-	ſpi-
4D/	.	.	.	4D/	.	.	.	.	.	.
=17	=17	=17	=17	=17	=17	=17	=17	=17	=17	=17
2E\	#	1ryy	1ryy	2E\	-men-	2g#X\	-men-	2b\	.	.
2A\	.	.	.	2A\	.	[2a\	.	2cc\	.	.
=18	=18	=18	=18	=18	=18	=18	=18	=18	=18	=18
1E	4	1ryy	1ryy	2.E\	.	2a\]	.	2.b\	.	.
.	#	.	.	.	.	4g#X\	.	.	.	.
.	.	.	.	4E\	-ti-	4g#\	-ti-	4b\	-ti-	-ri-
=19	=19	=19	=19	=19	=19	=19	=19	=19	=19	=19
2AA/	.	1ryy	1ryy	2AA/	-a	2a\	-a	2a\	-a	-tu,
2A\	.	.	.	2A\	sis	2a\	sis	2cc\	sis	in
=20	=20	=20	=20	=20	=20	=20	=20	=20	=20	=20
2.F\	.	1ryy	1ryy	2.F\	prae-	2.a\	prae-	2.b\	prae-	sem-
8E\L	.	.	.	8E\L	-sul	8g\L	-sul	4cc\	-sul	-pi-
8F\J	.	.	.	8F\J	.	8a\J	.	.	.	.
!	!	!	!	!	!	!LO:LB:g=original	!	!	!	!
=21	=21	=21	=21	=21	=21	=21	=21	=21	=21	=21
2G\	.	1ryy	1ryy	2G\	(et)	2g\	(et)	2dd\	(et)	-ter-
2C/	.	.	.	2C/	cus-	2g\	cus-	2cc\	cus-	-na
!LO:LB:g=original	!	!	!	!LO:LB:g=original	!	!	!	!LO:PB:g=original	!	!
=22	=22	=22	=22	=22	=22	=22	=22	=22	=22	=22
!	!	!	!	!	!	!	!	!LO:TX:a:t=P:problem=skreślone słowo "gloria"	!	!
1GG	.	1ryy	1ryy	2.GG/	-to-	2.g\	-to-	2.b\	-to-	ſae-
.	.	.	.	4GG/	-di-	4g\	-di-	4b\	-di-	-cu-
=23	=23	=23	=23	=23	=23	=23	=23	=23	=23	=23
1C	.	1ryy	1ryy	1C	-a	1g	-a	1cc	-a	-la
==	==	==	==	==;	==	==	==	==	==	==
*-	*-	*-	*-	*-	*-	*-	*-	*-	*-	*-
!!!system-decoration: [(g1)][(g2)][(g3)]
!!!RDF**kern: >= above
!!!RDF**kern: <= below
!!!AIN: 1 alto 1 empty 1 organ 2 violn 1 vox
!!!ENC: Anna Matuszewska
!!!END: 2021-01-02
!!!ENC: Andrzej Kubiczek
!!!END: 2020-07-02
